X: 31162
T: COTILLION No. 17. LADY GAY SPANKER'S SETT tune 2
C:
%R: reel
B: Elias Howe "The Musician's Companion" Part 3 1844 p.116 #2
S: http://imslp.org/wiki/The_Musician's_Companion_(Howe,_Elias)
Z: 2015 John Chambers <jc:trillian.mit.edu>
M: 2/4
L: 1/16
K: C
% - - - - - - - - - - - - - - - - - - - - - - - - - - - - -
(3(GAB) |\
c4 GABc | d2B2 c2g2 | e2c2 d2e2 | dcBA G2G2 |\
c4 GABc | d2B2 c2g2 | e2c2 d2B2 | c2c2c2 H|]
ef |\
g>ag>e e>ag>e | g>ab>c' g>ab>c' | g>ag>e g>ag>e | f>ed>c G>ce>f |\
g>ag>e g>ag>e | f>ab>c' g>ab>c' | ^f>ge>f d2B2 | c2c2"^D.C."c2 :|
% - - - - - - - - - - Dance description - - - - - - - - - -
%%begintext align
%% First couple right and left,
%% balance and turn,
%% 2d couple forward and back,
%% cross over,
%% chassa de chassa, &c.
%%endtext
% - - - - - - - - - - - - - - - - - - - - - - - - - - - - -
%%sep 1 1 300
